X: 1
T: String Quartet in B Minor opus 33 no 1 mvt 3
C: Franz Joseph Haydn
%%abc-version 2.0
%%abcx-abcm2ps-target-version 5.9.1 (29 Sep 2008)
%%abc-creator hum2abc beta
%%abcx-conversion-date 2021/02/14 14:38:35
%%abc-copyright Copyright (c) 1994, 2000 Center for Computer Assisted Research in the Humanities
%%abc-edited-by Frances Bennion
%%abcx-initial-encoding-date 1997/04/15
%%gracespace 0 6 6
%%humdrum-veritas 169715364
%%humdrum-veritas-data 945002692
%%linebreak <none>
%%barnumbers 0
L: 1/8
M: 6/8
N: Derived from op33n1-03.krn
Q: "Andante"
%%staves [1 2 3 4]
V: 1
V: 2
V: 3 clef=alto
V: 4 clef=bass
K: D
[V:1]z4 zD [I:setbarnb1]|
[V:2]z4 zz |
[V:3]z4 zz |
[V:4]z4 zz |
[V:1]FAd fad' |
[V:2]Fz2 Fz2 |
[V:3]Dz2 Dz2 |
[V:4]D,z2 D,z2 |
[V:1]a>>bg/>b/ ezC |
[V:2]G4 z2 |
[V:3]C4 z2 |
[V:4]A,4 z2 |
[V:1]EGc ege' |
[V:2]Gz2 Gz2 |
[V:3]Cz2 Cz2 |
[V:4]A,z2 A,z2 |
[V:1]g>>af/>a/ dzd |
[V:2]A4 zA |
[V:3]D,4 zF |
[V:4]D,4 z2 |
[V:1]eda a3/b//g//f |
[V:2]BAA c2d |
[V:3]GFD G2A |
[V:4]z2F E2D |
[V:1]eda a3/b//g//f |
[V:2]BAA c2d |
[V:3]GFD G2A |
[V:4]z2F E2D |
[V:1]ede f>b^g |
[V:2]BAA A2d |
[V:3]GFE D2E |
[V:4]z2C D2B, |
[V:1]ac'e' az2 |
[V:2]ccc cz2 |
[V:3]EEE Ez2 |
[V:4]A,A,A, A,zD,, |
[V:1]zff fff |
[V:2]zdd ddd |
[V:3]zAA AAA |
[V:4]F,,A,,D, F,A,D |
[V:1]g>>af/>g/ ez2 |
[V:2]c2d ez2 |
[V:3]A2A Az2 |
[V:4]E>>FD/>E/ CzC,, |
[V:1]zgg ggg |
[V:2]zee eee |
[V:3]zAA AAA |
[V:4]E,,G,,C, E,G,C |
[V:1]f>>ag/>b/ azd |
[V:2]d2c dzA |
[V:3]A2A AzF |
[V:4]D>>FE/>G/ Fz2 |
[V:1]cda >^ab/g/f |
[V:2]_BAA c2d |
[V:3]GFD G2A |
[V:4]z2F E2D |
[V:1]eda >c'e'/g'/f'- |
[V:2]BAa4- |
[V:3]GFF GED |
[V:4]z2D C2D |
[V:1]f'e'e'2 d'd'- |
[V:2]agg2 ff- |
[V:3]G,3 ^G,3 |
[V:4]G,3 ^G,3 |
[V:1]d'/c'/b/a/a az2 |
[V:2]f/e/d/c/c czA, |
[V:3]A,2A, A,zC |
[V:4]A,2A,, A,,z2 |
[V:1]e6- |
[V:2]CEc ecC |
[V:3]ECA cAA, |
[V:4]A,,2z A,,2z |
[V:1]e6- |
[V:2]B,DB dB^G |
[V:3]^G,B,^G BGD |
[V:4]E,2z E,2z |
[V:1]eaa a2^g |
[V:2]AEE EEE |
[V:3]CCC CCC |
[V:4]A,,A,,A,, A,,A,,A,, |
[V:1]fff f3/^g//a//b//c'//d'//e'// |
[V:2]FFF FFF |
[V:3]DDD DDD |
[V:4]A,,A,,A,, A,,A,,A,, |
[V:1]f'e'd' d'c'd' |
[V:2]F3 ^G3 |
[V:3]D3 B,3 |
[V:4]A,,A,,A,, A,,A,,A,, |
[V:1]c'c'c' c'2e' |
[V:2]AAA AAA |
[V:3]CEE EEE |
[V:4]A,,A,,A,, A,,A,,A,, |
[V:1]^d'd'd' d'/f'/a'/f'/d'/f'/ |
[V:2]A6 |
[V:3]B,6- |
[V:4]F,F,F, F,F,F, |
[V:1]e'ee eee |
[V:2]^G2z4 |
[V:3]B,2z4 |
[V:4]E,2z4 |
[V:1]eee eee |
[V:2]ddd ddd |
[V:3]z4 z^G |
[V:4]z4 z^G, |
[V:1]eee eee |
[V:2]ddd ddd |
[V:3]^A2B Ez^G |
[V:4]^A,2B, E,z^G, |
[V:1]eee eee |
[V:2]ddd ddd |
[V:3]^A2B Ez^G |
[V:4]^A,2B, E,z^G, |
[V:1]eee eee |
[V:2]ddd ddd |
[V:3]^A2B E=F^F |
[V:4]^A,2B, E,=F,^F, |
[V:1]eee dcB |
[V:2]ddc BA^G |
[V:3]G^GA FEE |
[V:4]G,^G,A, D,E,E, |
[V:1]A2z4 |
[V:2]A2z4 |
[V:3]A,EE EEE |
[V:4]A,2z4 |
[V:1]z4 z^g |
[V:2]z4 z^G |
[V:3]EEE EEE |
[V:4]DDD DDD |
[V:1]^a2b ez^g |
[V:2]^A2B Ez^G |
[V:3]EEE EEE |
[V:4]DDD DDD |
[V:1]^a2b ez^g |
[V:2]^A2B Ez^G |
[V:3]EEE EEE |
[V:4]DDD DDD |
[V:1]^a2b e=f^f |
[V:2]^A2B E=F^F |
[V:3]EEE EEE |
[V:4]DDD DDD |
[V:1]g^ga dcB |
[V:2]G^GA BAG |
[V:3]EEE FED |
[V:4]DDC DEE, |
[V:1]B3 ^A3 |
[V:2]^G2>=G2 FE |
[V:3]D2>E2 DC |
[V:4]F,6 |
[V:1]Bcd A>B^G |
[V:2]FED C>DB, |
[V:3]DEF E2D |
[V:4]D,C,B,, E,3 |
[V:1]AA^G F2E |
[V:2]A,2z4 |
[V:3]C2C, D,2E, |
[V:4]A,,6- |
[V:1]D2C B,A,^G, |
[V:2]A2>^G2 AB |
[V:3]F,2E, D,C,D, |
[V:4]A,,6 |
[V:1]A,A,A, A,zA, |
[V:2]AEE Ezz |
[V:3]C,C,C, C,z2 |
[V:4]A,,A,,A,, A,,z2 |
[V:1]CFA cfa |
[V:2]A,/C/A,/C/A,/C/ A,/C/A,/C/A,/C/ |
[V:3]F,/A,/F,/A,/F,/A,/ F,/A,/F,/A,/F,/A,/ |
[V:4]F,F,F, F,F,F, |
[V:1]f^e/>f/^g/>a/ bzC |
[V:2]B,/C/B,/C/B,/C/ B,/C/B,/C/B,/C/ |
[V:3]^G,/B,/G,/B,/G,/B,/ G,/B,/G,/B,/G,/B,/ |
[V:4]^G,G,G, G,G,G, |
[V:1]^E^Gc ^e^gb |
[V:2]B,/C/B,/C/B,/C/ B,/C/B,/C/B,/C/ |
[V:3]^G,/B,/G,/B,/G,/B,/ G,/B,/G,/B,/G,/B,/ |
[V:4]^E,E,E, E,E,E, |
[V:1]a>>b^g/>a/ fzc |
[V:2]C>>DB,/>C/ A,z2 |
[V:3]A,2B, Cz2 |
[V:4]F,F,^G, A,z2 |
[V:1]d>>ec/>e/ dfa |
[V:2]z4 zF |
[V:3]AAA AAA |
[V:4]FFF FFF |
[V:1]c2>^B2 zB |
[V:2]^G>>^A^^F/>A/ G^B^d |
[V:3]^Gz4 z |
[V:4]FFF FFF |
[V:1]c>>^d^B/>d/ ceg |
[V:2]cz4 E |
[V:3]^GGG =GGG |
[V:4]EEE EEE |
[V:1]B2>^A2 zA |
[V:2]F>>^G^E/>G/ F^Ac |
[V:3]Fz4 z |
[V:4]EEE EEE |
[V:1]B>>c^A/>c/ Bdf |
[V:2]Bz4 z |
[V:3]FFF FFF |
[V:4]DDD DDD |
[V:1]=c>>dB/>d/ cfa |
[V:2]AAA AAA |
[V:3]FFF FFF |
[V:4]DDD DDD |
[V:1]c>>^d^B/>d/ cfa |
[V:2]AAA AAA |
[V:3]FFF FFF |
[V:4]CCC CCC |
[V:1]c'^g^e cz2 |
[V:2]^G2z cG^E |
[V:3]^E2z4 |
[V:4]C2z4 |
[V:1]z6 |
[V:2]Cz4 z |
[V:3]C^G,^E, C,z2 |
[V:4]z2>C,2 ^G,,^E,, |
[V:1]z4 zD |
[V:2]z4 zD |
[V:3]z4 zD, |
[V:4]C,,4- C,,D,, |
[V:1]FAd f/g/a/b/c'/d'/ |
[V:2]FAd fz2 |
[V:3]F,A,D Fz2 |
[V:4]F,,A,,D, F,z2 |
[V:1]a>>bg/>b/ ezg' |
[V:2]G4 z2 |
[V:3]C4 z2 |
[V:4]A,4 z2 |
[V:1]e'c'a gec |
[V:2]Gz2 Gz2 |
[V:3]Cz2 Cz2 |
[V:4]A,z2 A,z2 |
[V:1]G>>AF/>A/ Dzd |
[V:2]A4 zA |
[V:3]D,4 zF |
[V:4]D,4 z2 |
[V:1]eda a3/b//g//f |
[V:2]BAA c2d |
[V:3]GFD G2A |
[V:4]z2F E2D |
[V:1]eda a3/b//g//f |
[V:2]BAA c2d |
[V:3]GFD G2A |
[V:4]z2F E2D |
[V:1]e3/f//e//d cgf |
[V:2]B2A GED |
[V:3]G2F ECD |
[V:4]z6 |
[V:1]ez4 z |
[V:2]CG/A/G/A/ G/A/G/A/G/A/ |
[V:3]C/E/C/E/C/E/ C/E/C/E/C/E/ |
[V:4]A,,C,E, G,CE |
[V:1]a2-a//b//c'//d'// e'z2 |
[V:2]G/A/G/A/G/A/ G/A/G/A/G/A/ |
[V:3]C/E/C/E/C/E/ C/E/C/E/C/E/ |
[V:4]G2z4 |
[V:1]z6 |
[V:2]F/A/F/A/F/A/ F/A/F/A/F/A/ |
[V:3]D/F/D/F/D/F/ D/F/D/F/D/F/ |
[V:4]A,,D,F, A,DF |
[V:1]a2b//c'//d'//e'// f'z2 |
[V:2]F/A/F/A/F/A/ F/A/F/A/F/A/ |
[V:3]D/F/D/F/D/F/ D/F/D/F/D/F/ |
[V:4]A2z4 |
[V:1]z6 |
[V:2]G/A/G/A/G/A/ G/A/G/A/G/A/ |
[V:3]C/E/C/E/C/E/ C/E/C/E/C/E/ |
[V:4]A,,C,E, G,CE |
[V:1]a>>bc'//d'//e'//f'// g'e'c' |
[V:2]G/A/G/A/G/A/ G/A/G/A/G/A/ |
[V:3]C/E/C/E/C/E/ C/E/C/E/C/E/ |
[V:4]G2z4 |
[V:1]d'2>>f'2 e'/d'/c'/d'/ |
[V:2][AF]DD DDD |
[V:3]DA,A, A,A,A, |
[V:4]F,F,F, F,F,F, |
[V:1]c'/b/bb b2_b |
[V:2]DDD DDD |
[V:3]G,G,G, G,G,G, |
[V:4]G,G,G, G,G,G, |
[V:1]a2>>c'2 e'/c'/a/g/ |
[V:2]CCC CCC |
[V:3]A,EE EEE |
[V:4]A,A,A, A,A,A, |
[V:1]fff f2d |
[V:2]DDD DDD |
[V:3]DDD DDD |
[V:4]B,B,B, B,B,B, |
[V:1]d/d'/c'/d'/=c'/^a/ b/f/g/^g/=a/^a/ |
[V:2]DDD Dz2 |
[V:3]A,A,A, G,z2 |
[V:4]F,F,F, G,z2 |
[V:1]b/d'/c'/d'/b/^g/ a/c/d/^d/e/^e/ |
[V:2]DDD Dz2 |
[V:3]B,B,B, A,z2 |
[V:4]G,G,G, F,z2 |
[V:1]f/d'/c'/d'/=c'/^a/ b/g/f/=f/e/_e/ |
[V:2]DDD Dz2 |
[V:3]A,A,A, G,z2 |
[V:4]F,F,F, G,z2 |
[V:1]d3 e3 |
[V:2]FFF GGG |
[V:3]DDD CCC |
[V:4]A,A,A, A,,A,,A,, |
[V:1]dAA AAA |
[V:2]F2z4 |
[V:3]D2z4 |
[V:4]D,2z4 |
[V:1]AAA AAA |
[V:2]GGG GGG |
[V:3]z6 |
[V:4]z4 zC |
[V:1]AAA AAA |
[V:2]GGG GGG |
[V:3]z6 |
[V:4]^D2E A,zC |
[V:1]AAA AAA |
[V:2]GGG GGG |
[V:3]z6 |
[V:4]^D2E A,zC |
[V:1]AAA AAA |
[V:2]GGG GGG |
[V:3]z6 |
[V:4]^D2E A,_B,=B, |
[V:1]AAA GFE |
[V:2]GGF EDC |
[V:3]z6 |
[V:4]=C^CD G,A,A,, |
[V:1]D2z4 |
[V:2]D2z4 |
[V:3]zA,A, A,A,A, |
[V:4]D,2z4 |
[V:1]z4 zc |
[V:2]z4 zC |
[V:3]A,A,A, A,A,A, |
[V:4]G,G,G, G,G,G, |
[V:1]^d2e A2c |
[V:2]^D2E A,zC |
[V:3]A,A,A, A,A,A, |
[V:4]G,G,G, G,G,G, |
[V:1]^d2e Azc |
[V:2]^D2E A,zC |
[V:3]A,A,A, A,A,A, |
[V:4]G,G,G, G,G,G, |
[V:1]^d2e A_B=B |
[V:2]^D2E A,_B,=B, |
[V:3]A,A,A, A,A,A, |
[V:4]G,G,G, G,G,G, |
[V:1]=c^cd GFE |
[V:2]=C^CD EDC |
[V:3]A,A,A, B,A,G, |
[V:4]G,G,F, G,A,A,, |
[V:1]E3 ^D3 |
[V:2]C2>=C2 B,A, |
[V:3]G,2>A,2 G,F, |
[V:4]B,,6 |
[V:1]EFG D>EC |
[V:2]B,A,G, A,3 |
[V:3]G,A,B, F,>G,E, |
[V:4]G,,F,,E,, A,,3 |
[V:1]Ddc B2A |
[V:2]A,2z4 |
[V:3]F,3 G,2A, |
[V:4]D,,6- |
[V:1]G2F EDC |
[V:2]D2>E2 FG |
[V:3]B,2A, G,F,E, |
[V:4]D,,6 |
[V:1]DDD Dz2 |]
[V:2]FA,A, A,z2 |]
[V:3]F,F,F, F,z2 |]
[V:4]D,,D,,D,, D,,z2 |]

